arkscan/icons/bitrue.svg

<svg width="200" height="200" viewBox="0 0 200 200" fill="none" xmlns="http://www.w3.org/2000/svg">
<g clip-path="url(#clip0_9356_31575)">
<path fill-rule="evenodd" clip-rule="evenodd" d="M125.096 187.448L106.256 198.328C102.248 200.64 97.4961 200.488 93.7521 198.336L93.7441 198.352L55.8641 176.48C55.6321 176.344 55.4081 176.208 55.1921 176.064L17.9601 154.568C13.9601 152.248 11.7201 148.048 11.7281 143.728H11.7041V99.9838C11.7041 99.7278 11.7121 99.4718 11.7281 99.2238V92.6638L36.7521 78.2158V99.2238C36.7681 99.4878 36.7761 99.7518 36.7761 100.016V136.528L125.096 187.448Z" fill="url(#paint0_linear_9356_31575)"/>
<path fill-rule="evenodd" clip-rule="evenodd" d="M163.096 34.4958L182.04 45.4398C186.04 47.7598 188.28 51.9598 188.272 56.2798H188.296V100.024C188.296 100.28 188.288 100.528 188.272 100.784V143.72C188.28 148.36 185.76 152.416 182.016 154.584L137.8 180.112L112.768 165.656L163.248 136.512L163.096 34.4958Z" fill="url(#paint1_linear_9356_31575)"/>
<path fill-rule="evenodd" clip-rule="evenodd" d="M106.256 1.6559L144.136 23.5199C144.368 23.6559 144.592 23.7919 144.808 23.9359L150.384 27.1519V56.0479L132.296 45.6079C132.072 45.4959 131.848 45.3759 131.624 45.2479L99.976 26.9759L11.728 77.9839V56.2879C11.72 51.6479 14.24 47.5919 17.984 45.4239L93.7441 1.6799C97.7521 -0.6321 102.504 -0.4801 106.248 1.6719L106.256 1.6559Z" fill="url(#paint2_linear_9356_31575)"/>
<path d="M99.8562 151.544C89.6802 151.544 80.4642 147.416 73.7922 140.744C67.1202 134.072 62.9922 124.856 62.9922 114.68C62.9922 97.92 63.0722 81.216 63.0082 64.248L84.8802 51.624L84.6482 80.864L84.6402 81.096C89.2802 78.992 94.4322 77.816 99.8562 77.816C110.032 77.816 119.248 81.944 125.92 88.616C132.592 95.288 136.72 104.504 136.72 114.68C136.72 124.856 132.592 134.072 125.92 140.744C119.248 147.416 110.032 151.544 99.8562 151.544ZM89.0642 125.472C91.8242 128.232 95.6402 129.944 99.8562 129.944C104.072 129.944 107.888 128.24 110.648 125.472C113.408 122.712 115.12 118.896 115.12 114.68C115.12 110.464 113.408 106.648 110.648 103.888C107.888 101.128 104.072 99.416 99.8562 99.416C95.6402 99.416 91.8242 101.128 89.0642 103.888C86.3042 106.648 84.5922 110.464 84.5922 114.68C84.5922 118.896 86.2962 122.712 89.0642 125.472Z" fill="url(#paint3_linear_9356_31575)"/>
</g>
<defs>
<linearGradient id="paint0_linear_9356_31575" x1="68.399" y1="200.006" x2="68.399" y2="78.2189" gradientUnits="userSpaceOnUse">
<stop stop-color="#E9AF21"/>
<stop offset="1" stop-color="#F8C42F"/>
</linearGradient>
<linearGradient id="paint1_linear_9356_31575" x1="150.535" y1="180.126" x2="150.535" y2="34.514" gradientUnits="userSpaceOnUse">
<stop stop-color="#E9AF21"/>
<stop offset="1" stop-color="#F8C42F"/>
</linearGradient>
<linearGradient id="paint2_linear_9356_31575" x1="81.0438" y1="77.9807" x2="81.0438" y2="-0.00647462" gradientUnits="userSpaceOnUse">
<stop stop-color="#E9AF21"/>
<stop offset="1" stop-color="#F8C42F"/>
</linearGradient>
<linearGradient id="paint3_linear_9356_31575" x1="99.8566" y1="151.546" x2="99.8566" y2="51.628" gradientUnits="userSpaceOnUse">
<stop stop-color="#E9AF21"/>
<stop offset="1" stop-color="#F8C42F"/>
</linearGradient>
<clipPath id="clip0_9356_31575">
<rect width="200" height="200" fill="white"/>
</clipPath>
</defs>
</svg>

<svg width="200" height="200" fill="none" xmlns="http://www.w3.org/2000/svg"><g clip-path="url(#a)"><path fill-rule="evenodd" clip-rule="evenodd" d="m125.096 187.448-18.84 10.88a12.51 12.51 0 0 1-12.504.008l-.008.016-37.88-21.872a13.679 13.679 0 0 1-.672-.416L17.96 154.568c-4-2.32-6.24-6.52-6.232-10.84h-.024V99.984c0-.256.008-.512.024-.76v-6.56l25.024-14.448v21.008c.016.264.024.528.024.792v36.512l88.32 50.92Z" fill="url(#b)"/><path fill-rule="evenodd" clip-rule="evenodd" d="M163.096 34.496 182.04 45.44c4 2.32 6.24 6.52 6.232 10.84h.024v43.744c0 .256-.008.504-.024.76v42.936a12.519 12.519 0 0 1-6.256 10.864L137.8 180.112l-25.032-14.456 50.48-29.144-.152-102.016Z" fill="url(#c)"/><path fill-rule="evenodd" clip-rule="evenodd" d="m106.256 1.656 37.88 21.864c.232.136.456.272.672.416l5.576 3.216v28.896l-18.088-10.44a13.738 13.738 0 0 1-.672-.36L99.976 26.976 11.728 77.984V56.288a12.519 12.519 0 0 1 6.256-10.864L93.744 1.68a12.51 12.51 0 0 1 12.504-.008l.008-.016Z" fill="url(#d)"/><path d="M99.856 151.544c-10.176 0-19.392-4.128-26.064-10.8-6.672-6.672-10.8-15.888-10.8-26.064 0-16.76.08-33.464.016-50.432L84.88 51.624l-.232 29.24-.008.232a36.755 36.755 0 0 1 15.216-3.28c10.176 0 19.392 4.128 26.064 10.8 6.672 6.672 10.8 15.888 10.8 26.064s-4.128 19.392-10.8 26.064c-6.672 6.672-15.888 10.8-26.064 10.8Zm-10.792-26.072a15.218 15.218 0 0 0 10.792 4.472c4.216 0 8.032-1.704 10.792-4.472a15.218 15.218 0 0 0 4.472-10.792c0-4.216-1.712-8.032-4.472-10.792a15.218 15.218 0 0 0-10.792-4.472 15.218 15.218 0 0 0-10.792 4.472 15.218 15.218 0 0 0-4.472 10.792c0 4.216 1.704 8.032 4.472 10.792Z" fill="url(#e)"/></g><defs><linearGradient id="b" x1="68.399" y1="200.006" x2="68.399" y2="78.219" gradientUnits="userSpaceOnUse"><stop stop-color="#E9AF21"/><stop offset="1" stop-color="#F8C42F"/></linearGradient><linearGradient id="c" x1="150.535" y1="180.126" x2="150.535" y2="34.514" gradientUnits="userSpaceOnUse"><stop stop-color="#E9AF21"/><stop offset="1" stop-color="#F8C42F"/></linearGradient><linearGradient id="d" x1="81.044" y1="77.981" x2="81.044" y2="-.006" gradientUnits="userSpaceOnUse"><stop stop-color="#E9AF21"/><stop offset="1" stop-color="#F8C42F"/></linearGradient><linearGradient id="e" x1="99.857" y1="151.546" x2="99.857" y2="51.628" gradientUnits="userSpaceOnUse"><stop stop-color="#E9AF21"/><stop offset="1" stop-color="#F8C42F"/></linearGradient><clipPath id="a"><path fill="#fff" d="M0 0h200v200H0z"/></clipPath></defs></svg>
